pype/resources/ftrack/action_icons/AssetsRemover.svg

<?xml version="1.0" ?><svg enable-background="new 0 0 512 512" id="Layer_1" version="1.1" viewBox="0 0 512 512" xml:space="preserve" xmlns="http://www.w3.org/2000/svg" xmlns:xlink="http://www.w3.org/1999/xlink"><g><g><linearGradient gradientUnits="userSpaceOnUse" id="SVGID_1_" x1="-0.0000027" x2="512" y1="256" y2="256"><stop offset="0" style="stop-color:#00AEEE"/><stop offset="1" style="stop-color:#0095DA"/></linearGradient><circle cx="256" cy="256" fill="url(#SVGID_1_)" r="256"/><linearGradient gradientUnits="userSpaceOnUse" id="SVGID_2_" x1="42.6666641" x2="469.3333435" y1="256.0005188" y2="256.0005188"><stop offset="0" style="stop-color:#0095DA"/><stop offset="1" style="stop-color:#00AEEE"/></linearGradient><path d="M256,469.3338623c-117.6314697,0-213.3333435-95.7023926-213.3333435-213.3333435    c0-117.6314545,95.7018661-213.333313,213.3333435-213.333313c117.6357422,0,213.3333435,95.7018661,213.3333435,213.333313    C469.3333435,373.6314697,373.6357422,469.3338623,256,469.3338623z" fill="url(#SVGID_2_)"/></g><g><path d="M315.8906555,167.4933319h-28.3743896C287.5162659,154.4944,277.020813,144,264.0218811,144    c-13.0010834,0-23.4944153,10.4944-23.4944153,23.4933319h-28.3760071v40.6847992h103.7391968V167.4933319z" opacity="0.3"/><path d="M325.8906555,187.4895935v30.6885376H202.1504059v-30.6885376H164.354126V384h199.2911987V187.4895935    H325.8906555z M309.4405212,336.4693298l-7.0703735,7.0698853l-38.3712158-38.3712158l-38.3717346,38.3712158    l-7.0704041-7.0698853l38.3717346-38.3717346l-38.3717346-38.3717346l7.0704041-7.0698547l38.3717346,38.3711853    l38.3712158-38.3711853l7.0703735,7.0698547l-38.3717346,38.3717346L309.4405212,336.4693298z" opacity="0.3"/></g><g><path d="M307.8906555,159.4933319h-28.3743896C279.5162659,146.4944,269.020813,136,256.0218811,136    c-13.0010834,0-23.4944153,10.4944-23.4944153,23.4933319h-28.3760071v40.6847992h103.7391968V159.4933319z" fill="#FFFFFF"/><path d="M317.8906555,179.4895935v30.6885376H194.1504059v-30.6885376H156.354126V376h199.2911987V179.4895935    H317.8906555z M301.4405212,328.4693298l-7.0703735,7.0698853l-38.3712158-38.3712158l-38.3717346,38.3712158    l-7.0704041-7.0698853l38.3717346-38.3717346l-38.3717346-38.3717346l7.0704041-7.0698547l38.3717346,38.3711853    l38.3712158-38.3711853l7.0703735,7.0698547l-38.3717346,38.3717346L301.4405212,328.4693298z" fill="#FFFFFF"/></g></g></svg>

<?xml version="1.0" encoding="UTF-8" standalone="no"?>
<!DOCTYPE svg PUBLIC "-//W3C//DTD SVG 1.1//EN" "http://www.w3.org/Graphics/SVG/1.1/DTD/svg11.dtd">
<svg width="100%" height="100%" viewBox="0 0 512 512" version="1.1" xmlns="http://www.w3.org/2000/svg" xmlns:xlink="http://www.w3.org/1999/xlink" xml:space="preserve" xmlns:serif="http://www.serif.com/" style="fill-rule:evenodd;clip-rule:evenodd;stroke-linejoin:round;stroke-miterlimit:2;">
    <g>
        <g>
            <circle cx="256" cy="256" r="256" style="fill:rgb(0,141,255);"/>
            <path d="M256,469.334C138.369,469.334 42.667,373.631 42.667,256.001C42.667,138.369 138.369,42.667 256,42.667C373.636,42.667 469.333,138.369 469.333,256.001C469.333,373.631 373.636,469.334 256,469.334Z" style="fill:rgb(0,141,255);fill-rule:nonzero;"/>
        </g>
        <g>
            <path d="M315.891,167.493L287.516,167.493C287.516,154.494 277.021,144 264.022,144C251.021,144 240.527,154.494 240.527,167.493L212.151,167.493L212.151,208.178L315.891,208.178L315.891,167.493Z" style="fill-opacity:0.3;fill-rule:nonzero;"/>
            <path d="M325.891,187.49L325.891,218.178L202.15,218.178L202.15,187.49L164.354,187.49L164.354,384L363.645,384L363.645,187.49L325.891,187.49ZM309.441,336.469L302.37,343.539L263.999,305.168L225.627,343.539L218.557,336.469L256.929,298.098L218.557,259.726L225.627,252.656L263.999,291.027L302.37,252.656L309.441,259.726L271.069,298.098L309.441,336.469Z" style="fill-opacity:0.3;fill-rule:nonzero;"/>
        </g>
        <g transform="matrix(1,0,0,1,9,2)">
            <path d="M307.891,159.493L279.516,159.493C279.516,146.494 269.021,136 256.022,136C243.021,136 232.527,146.494 232.527,159.493L204.151,159.493L204.151,200.178L307.891,200.178L307.891,159.493Z" style="fill:white;fill-rule:nonzero;"/>
            <path d="M317.891,179.49L317.891,210.178L194.15,210.178L194.15,179.49L156.354,179.49L156.354,376L355.645,376L355.645,179.49L317.891,179.49ZM301.441,328.469L294.37,335.539L255.999,297.168L217.627,335.539L210.557,328.469L248.929,290.098L210.557,251.726L217.627,244.656L255.999,283.027L294.37,244.656L301.441,251.726L263.069,290.098L301.441,328.469Z" style="fill:white;fill-rule:nonzero;"/>
        </g>
    </g>
</svg>
